X:2
T:Hawthorn Tree of Cawdor
R:strathspey
S:Chris Norman
M:C
L:1/8
Q:1/4=140
K:C
c>B A>G A<c EF| G>A G>E G3 z| c>B A>G A<c E2| D/D/ D EG A3 z:|!
Gc/c/ c>c c3 z| Bd/d/ d>d d2 z f| e>d c>B c>B AG| A<c d>B c2 c/B/A/G/|!
Ec/c/ c>c Ec/c/ c>c|  Bd/d/ d>d d3 z| c>d e>a g<a e>d| c/B/A B>G A3 z:||
